X:346
T:Stone in the Field
Z: id:dc-reel-322
M:C
L:1/8
K:A Dorian
AG|EAAG ABcd|eaaf gedB|c3A BAGB|AcBA GEDG|!
EAAG ABcd|eaaf gedB|c3d eage|dBGA BA:|!
Bd|eaag a3b|c'2ba gedB|c3A BAGB|AcBA GEDg|!
eaa2 bgfg|agef gfga|bgaf gedB|AdBG A2:|!

